X:75
T:I Have a Bonnet Trimmed with Blue
R:polka
H:See also #67, #70
Z:id:hn-polka-75
M:2/4
L:1/8
K:D
DE/F/ GB|AD F2|AB/A/ GE|DE FA|DE/F/ GB|AD F2|AB/A/ GE|ED D2:|
|:AB/c/ dc|BA F2|AB/A/ GE|DE FA|AB/c/ dc|BA F2|AB/A/ GE|ED D2:|
<end>
<start>
